X:8795
T:L'Estecheiru
C:Beleño
S:Música Tradicional Asturiana, (C) Tello & Tito. Asturies, 2001.
S:http://pagina.de/MusTradAst <telloytito@asturies.org>
A:Asturies
M:6/8
L:1/8
Q:3/8=120
K:F
|:G2E G2E|FED EDE|G2E G2E|
BAG AGF|G2E G2E|FED C3:|
|:EFG E2C|DEF E2C|EFG E2C|DEF E3|
EFG E2C|DEF E2C|BAG AGF|GFE C3:|
|:BAG AGF|G2E G2G|BAG AGF|G6|
AGF GFE|F2E D2C|DEF EFE|C6:|


